assets/Mrs claus/Medium-Dark/Flat/mrs_claus_flat_medium-dark.svg

<svg width="32" height="32" viewBox="0 0 32 32" fill="none" xmlns="http://www.w3.org/2000/svg">
<path d="M7 22C8.65685 22 10 20.6569 10 19C10 17.3431 8.65685 16 7 16C5.34315 16 4 17.3431 4 19C4 20.6569 5.34315 22 7 22Z" fill="#8B5C56"/>
<path d="M25 22C26.6569 22 28 20.6569 28 19C28 17.3431 26.6569 16 25 16C23.3431 16 22 17.3431 22 19C22 20.6569 23.3431 22 25 22Z" fill="#8B5C56"/>
<path d="M26 11H6V7.80198C6 4.59406 8.62 2 11.86 2H20.14C23.38 2 26 4.59406 26 7.80198V11Z" fill="#F8312F"/>
<path d="M13.5847 8.01003C9.56423 8.01003 6.34382 11.2489 6.50586 15.1395L6.75903 21.2762C6.99196 26.5005 11.0529 30 16.0051 30C20.9471 30 25.0182 26.5005 25.2409 21.2662L25.4941 15.1294C25.6562 11.2388 22.4459 8 18.4153 8H13.5847V8.01003Z" fill="#966661"/>
<path d="M16 24.3826C15.0481 24.3826 14.1648 24.1621 13.4189 23.7785C13.1638 23.6443 12.889 23.9319 13.046 24.1717C13.6741 25.121 14.7635 25.7443 16 25.7443C17.2366 25.7443 18.3259 25.121 18.954 24.1717C19.111 23.9319 18.8362 23.6538 18.5811 23.7785C17.8254 24.1621 16.9421 24.3826 16 24.3826Z" fill="#990838"/>
<path d="M27.9521 11.61C27.8041 11.21 27.7449 10.77 27.8041 10.35C27.8238 10.23 27.8337 10.1 27.8337 9.97002C27.8337 8.46002 26.6305 7.24002 25.1412 7.24002C24.9439 7.24002 24.7565 7.11002 24.7072 6.91002C24.3818 5.78002 23.3462 4.96002 22.1331 4.96002C21.9555 4.96002 21.7879 4.98002 21.6301 5.01002C21.3737 5.06002 21.1074 5.00002 20.9101 4.83002C19.7956 3.71002 17.9908 3.66002 16.8664 4.77002C16.8368 4.80002 16.7974 4.84002 16.7678 4.87002C16.3536 5.32002 15.6632 5.32002 15.2391 4.87002C15.2193 4.84002 15.1898 4.82002 15.17 4.80002C14.0457 3.69002 12.2408 3.73002 11.1263 4.86002C10.8995 5.04002 10.6431 5.10002 10.3866 5.05002C10.219 5.02002 10.0513 5.00002 9.87377 5.00002C8.66066 5.00002 7.62508 5.82002 7.29961 6.95002C7.24044 7.15002 7.06291 7.28002 6.86566 7.28002C5.37639 7.27002 4.17315 8.49002 4.17315 10C4.17315 10.13 4.18301 10.26 4.20273 10.38C4.26191 10.81 4.20273 11.24 4.05479 11.64C3.73919 12.52 3.66029 13.48 3.85754 14.43L4.73532 18.88C4.99175 20.19 5.8498 21.29 7.04319 21.85L6.80648 16.13C6.77689 15.55 7.11222 15.02 7.62508 14.79L13.3356 12.27C14.5388 11.74 15.4265 10.7 15.8012 9.47002C15.8604 9.27002 16.1366 9.27002 16.2056 9.47002C16.5903 10.69 17.468 11.71 18.6713 12.24L24.3818 14.76C24.9045 14.99 25.23 15.52 25.2004 16.1L24.9538 21.81C26.1472 21.25 27.0052 20.15 27.2617 18.84L28.1493 14.4C28.3367 13.46 28.2578 12.49 27.9521 11.61Z" fill="#E6E6E6"/>
<path d="M15.3842 18.4946L14.5388 21.5013C14.368 22.1146 14.7817 22.7476 15.3752 22.7476H16.6253C17.2099 22.7476 17.6326 22.1244 17.4617 21.5013L16.6163 18.4946C16.4275 17.8319 15.5731 17.8319 15.3842 18.4946Z" fill="#75443E"/>
<path d="M14.7859 19.5C14.8297 18.9412 15.3656 18.4902 16 18.4902C16.6344 18.4902 17.1703 18.9314 17.2141 19.5H17.75C17.7063 18.6667 16.9406 18 16 18C15.0594 18 14.2937 18.6667 14.25 19.5H14.7859Z" fill="#F4F4F4"/>
<path d="M25.35 19.75H23V19H25.35C25.56 19 25.74 19.18 25.72 19.39C25.72 19.59 25.55 19.75 25.35 19.75Z" fill="#F4F4F4"/>
<path d="M9 19.75H6.87152C6.67152 19.75 6.50152 19.59 6.50152 19.39C6.48152 19.18 6.66152 19 6.87152 19H9V19.75Z" fill="#F4F4F4"/>
<path d="M11.5298 16.48C12.5698 16.48 13.4298 17.2 13.9598 18.01C13.5116 18.1476 13.0733 18.2741 12.6389 18.3994C11.8424 18.6292 11.0587 18.8553 10.2498 19.14L9.35983 18.34C8.98983 18.01 9.01983 17.42 9.41983 17.13C10.0098 16.71 10.7898 16.48 11.5298 16.48Z" fill="black"/>
<path d="M21.2398 16.48C20.1998 16.48 19.3398 17.2 18.8098 18.01C19.258 18.1476 19.6963 18.2741 20.1308 18.3994C20.9273 18.6292 21.711 18.8553 22.5198 19.14L23.4098 18.34C23.7798 18.01 23.7498 17.42 23.3498 17.13C22.7598 16.71 21.9798 16.48 21.2398 16.48Z" fill="black"/>
<path d="M9.33973 18.62C9.61973 17.49 10.6397 16.66 11.8497 16.66C13.1097 16.66 14.1597 17.56 14.3997 18.75C14.4597 19.01 14.2497 19.25 13.9797 19.25H9.83973C9.50973 19.25 9.25973 18.94 9.33973 18.62Z" fill="white"/>
<path d="M23.4199 18.62C23.1399 17.49 22.1199 16.66 20.9099 16.66C19.6499 16.66 18.5999 17.56 18.3599 18.75C18.2999 19.01 18.5099 19.25 18.7799 19.25H22.9199C23.2499 19.25 23.4999 18.94 23.4199 18.62Z" fill="white"/>
<path d="M10.5798 18.81C10.5798 17.89 11.3198 17.15 12.2398 17.15C13.1498 17.15 13.8898 17.9 13.8898 18.81C13.8898 18.96 13.8698 19.11 13.8298 19.25H10.6398C10.5998 19.11 10.5798 18.96 10.5798 18.81Z" fill="#7D4533"/>
<path d="M22.1899 18.81C22.1899 17.89 21.4499 17.15 20.5299 17.15C19.6099 17.15 18.8699 17.9 18.8699 18.81C18.8699 18.96 18.8899 19.11 18.9299 19.25H22.1299C22.1699 19.11 22.1899 18.96 22.1899 18.81Z" fill="#7D4533"/>
<path d="M12.2298 17.86C12.7598 17.86 13.1798 18.29 13.1798 18.81C13.1798 18.97 13.1398 19.12 13.0698 19.25H11.3898C11.3198 19.12 11.2798 18.97 11.2798 18.81C11.2798 18.28 11.7098 17.86 12.2298 17.86Z" fill="black"/>
<path d="M20.5298 17.86C19.9998 17.86 19.5798 18.29 19.5798 18.81C19.5798 18.97 19.6198 19.12 19.6898 19.25H21.3698C21.4398 19.12 21.4798 18.97 21.4798 18.81C21.4798 18.28 21.0498 17.86 20.5298 17.86Z" fill="black"/>
<path d="M11.9696 18.16C11.9696 18.3257 11.8353 18.46 11.6696 18.46C11.5039 18.46 11.3696 18.3257 11.3696 18.16C11.3696 17.9943 11.5039 17.86 11.6696 17.86C11.8353 17.86 11.9696 17.9943 11.9696 18.16Z" fill="white"/>
<path d="M20.2699 18.16C20.2699 18.3257 20.1356 18.46 19.9699 18.46C19.8042 18.46 19.6699 18.3257 19.6699 18.16C19.6699 17.9943 19.8042 17.86 19.9699 17.86C20.1356 17.86 20.2699 17.9943 20.2699 18.16Z" fill="white"/>
<path d="M12.2811 21.7423C13.6252 21.6423 14.6988 20.5814 14.8129 19.24C14.8229 19.11 14.7229 19 14.5929 19L13.019 19L12.2811 20.4169V21.7423Z" fill="#00D1ED"/>
<path d="M11.199 19H8.61295C8.21295 19 7.91295 19.38 8.02295 19.77C8.3464 20.8545 9.31243 21.6675 10.4905 21.7441L11.556 20.3457L11.199 19Z" fill="#00D1ED"/>
<path d="M21.3308 21.7435C22.487 21.6636 23.4482 20.8618 23.7707 19.79C23.8907 19.4 23.6007 19 23.1907 19L22.0691 19L21.2144 20.3694L21.3308 21.7435Z" fill="#00D1ED"/>
<path d="M20.2591 19L17.2207 19C17.0907 19 16.9907 19.11 17.0007 19.24C17.1154 20.5779 18.1981 21.651 19.5507 21.7435L20.4794 20.3694L20.2591 19Z" fill="#00D1ED"/>
<path d="M10.489 21.75L11.199 19H13.019L12.279 21.75H10.489Z" fill="#26EAFC"/>
<path d="M19.5491 21.75L20.2591 19H22.0691L21.3291 21.75H19.5491Z" fill="#26EAFC"/>
<path d="M21.5148 14.1726C22.0902 14.3537 22.47 14.6551 22.7967 14.9396C23.012 15.1272 23.0345 15.4538 22.847 15.6691C22.6594 15.8844 22.3328 15.907 22.1175 15.7194C21.8241 15.4639 21.574 15.2753 21.2043 15.159C20.8265 15.04 20.277 14.983 19.3798 15.0927C19.0964 15.1274 18.8385 14.9258 18.8038 14.6423C18.7692 14.3589 18.9708 14.101 19.2543 14.0663C20.2372 13.9461 20.9476 13.994 21.5148 14.1726Z" fill="#9B9B9B"/>
<path d="M10.1929 14.3871C9.88758 14.5071 9.64582 14.6358 9.47779 14.7363L9.19964 14.9214C8.97423 15.0967 8.93362 15.4216 9.10894 15.647C9.28379 15.8718 9.60746 15.9127 9.83279 15.739L9.83793 15.7352C9.84372 15.7309 9.85407 15.7234 9.86884 15.7132C9.89841 15.6928 9.9455 15.6616 10.0089 15.6236C10.1358 15.5477 10.3266 15.4457 10.5713 15.3495C11.0608 15.157 11.7583 14.9905 12.5943 15.0927C12.8777 15.1274 13.1356 14.9258 13.1703 14.6423C13.205 14.3589 13.0033 14.101 12.7199 14.0663C11.6759 13.9386 10.8034 14.147 10.1929 14.3871Z" fill="#9B9B9B"/>
</svg>

<svg xmlns="http://www.w3.org/2000/svg" width="32" height="32" fill="none"><path fill="#8B5C56" d="M7 22a3 3 0 1 0 0-6 3 3 0 0 0 0 6ZM25 22a3 3 0 1 0 0-6 3 3 0 0 0 0 6Z"/><path fill="#F8312F" d="M26 11H6V7.802C6 4.594 8.62 2 11.86 2h8.28C23.38 2 26 4.594 26 7.802V11Z"/><path fill="#966661" d="M13.585 8.01c-4.02 0-7.241 3.239-7.08 7.13l.254 6.136C6.992 26.5 11.053 30 16.005 30c4.942 0 9.013-3.5 9.236-8.734l.253-6.137C25.656 11.24 22.446 8 18.415 8h-4.83v.01Z"/><path fill="#990838" d="M16 24.383c-.952 0-1.835-.22-2.581-.604-.255-.135-.53.153-.373.393A3.531 3.531 0 0 0 16 25.744a3.531 3.531 0 0 0 2.954-1.572c.157-.24-.118-.518-.373-.393a5.705 5.705 0 0 1-2.581.604Z"/><path fill="#E6E6E6" d="M27.952 11.61c-.148-.4-.207-.84-.148-1.26.02-.12.03-.25.03-.38 0-1.51-1.203-2.73-2.693-2.73a.445.445 0 0 1-.434-.33 2.689 2.689 0 0 0-2.574-1.95c-.177 0-.345.02-.503.05a.849.849 0 0 1-.72-.18c-1.114-1.12-2.92-1.17-4.044-.06l-.098.1c-.414.45-1.105.45-1.529 0-.02-.03-.05-.05-.069-.07-1.124-1.11-2.93-1.07-4.044.06a.887.887 0 0 1-.74.19A2.877 2.877 0 0 0 9.875 5C8.66 5 7.625 5.82 7.3 6.95c-.06.2-.237.33-.434.33-1.49-.01-2.693 1.21-2.693 2.72 0 .13.01.26.03.38.059.43 0 .86-.148 1.26a5.145 5.145 0 0 0-.197 2.79l.877 4.45a4.155 4.155 0 0 0 2.308 2.97l-.237-5.72c-.03-.58.306-1.11.82-1.34l5.71-2.52a4.482 4.482 0 0 0 2.465-2.8c.06-.2.336-.2.405 0a4.484 4.484 0 0 0 2.465 2.77l5.71 2.52c.523.23.849.76.82 1.34l-.247 5.71a4.155 4.155 0 0 0 2.308-2.97l.887-4.44a5.35 5.35 0 0 0-.197-2.79Z"/><path fill="#75443E" d="M15.384 18.495 14.54 21.5c-.171.614.243 1.247.836 1.247h1.25c.585 0 1.008-.624.837-1.247l-.846-3.006c-.189-.663-1.043-.663-1.232 0Z"/><path fill="#F4F4F4" d="M14.786 19.5c.044-.559.58-1.01 1.214-1.01s1.17.441 1.214 1.01h.536c-.044-.833-.81-1.5-1.75-1.5s-1.706.667-1.75 1.5h.536ZM25.35 19.75H23V19h2.35c.21 0 .39.18.37.39 0 .2-.17.36-.37.36ZM9 19.75H6.872c-.2 0-.37-.16-.37-.36-.02-.21.16-.39.37-.39H9v.75Z"/><path fill="#000" d="M11.53 16.48c1.04 0 1.9.72 2.43 1.53-.448.138-.887.264-1.321.39-.797.23-1.58.455-2.39.74l-.89-.8a.78.78 0 0 1 .06-1.21c.59-.42 1.37-.65 2.11-.65ZM21.24 16.48c-1.04 0-1.9.72-2.43 1.53.448.138.886.264 1.32.39.797.23 1.581.455 2.39.74l.89-.8a.78.78 0 0 0-.06-1.21c-.59-.42-1.37-.65-2.11-.65Z"/><path fill="#fff" d="M9.34 18.62c.28-1.13 1.3-1.96 2.51-1.96 1.26 0 2.31.9 2.55 2.09.06.26-.15.5-.42.5H9.84c-.33 0-.58-.31-.5-.63ZM23.42 18.62a2.585 2.585 0 0 0-2.51-1.96c-1.26 0-2.31.9-2.55 2.09-.06.26.15.5.42.5h4.14c.33 0 .58-.31.5-.63Z"/><path fill="#7D4533" d="M10.58 18.81c0-.92.74-1.66 1.66-1.66a1.66 1.66 0 0 1 1.59 2.1h-3.19c-.04-.14-.06-.29-.06-.44ZM22.19 18.81c0-.92-.74-1.66-1.66-1.66a1.662 1.662 0 0 0-1.6 2.1h3.2c.04-.14.06-.29.06-.44Z"/><path fill="#000" d="M12.23 17.86a.95.95 0 0 1 .84 1.39h-1.68a.95.95 0 0 1 .84-1.39ZM20.53 17.86a.95.95 0 0 0-.84 1.39h1.68a.95.95 0 0 0-.84-1.39Z"/><path fill="#fff" d="M11.97 18.16a.3.3 0 1 1-.6 0 .3.3 0 0 1 .6 0ZM20.27 18.16a.3.3 0 1 1-.6 0 .3.3 0 0 1 .6 0Z"/><path fill="#00D1ED" d="M12.281 21.742a2.745 2.745 0 0 0 2.532-2.502.22.22 0 0 0-.22-.24h-1.574l-.738 1.417v1.325ZM11.199 19H8.613c-.4 0-.7.38-.59.77a2.767 2.767 0 0 0 2.468 1.974l1.065-1.398L11.199 19ZM21.33 21.744a2.757 2.757 0 0 0 2.44-1.954.61.61 0 0 0-.58-.79h-1.12l-.856 1.37.117 1.373ZM20.26 19h-3.04a.22.22 0 0 0-.22.24 2.753 2.753 0 0 0 2.55 2.504l.93-1.375L20.26 19Z"/><path fill="#26EAFC" d="m10.489 21.75.71-2.75h1.82l-.74 2.75h-1.79ZM19.55 21.75l.71-2.75h1.81l-.74 2.75h-1.78Z"/><path fill="#9B9B9B" d="M21.515 14.173c.575.18.955.482 1.282.767a.517.517 0 0 1-.68.78c-.293-.256-.543-.445-.913-.561-.378-.119-.927-.176-1.824-.066a.517.517 0 1 1-.126-1.027c.983-.12 1.694-.072 2.26.107ZM10.193 14.387c-.305.12-.547.249-.715.35l-.278.184a.517.517 0 0 0 .633.818l.005-.004.03-.022a3.843 3.843 0 0 1 .702-.364 4.138 4.138 0 0 1 2.024-.256.517.517 0 1 0 .126-1.027 5.171 5.171 0 0 0-2.527.321Z"/></svg>
